static/images/mobile/copyright/wikipedia-wordmark-mni.svg

<?xml version="1.0" encoding="UTF-8"?>
<svg width="120px" height="18px" viewBox="0 0 120 18" version="1.1" xmlns="http://www.w3.org/2000/svg" xmlns:xlink="http://www.w3.org/1999/xlink">
    <title>wikipedia-wordmark-mni</title>
    <g id="Page-1" stroke="none" stroke-width="1" fill="none" fill-rule="evenodd">
        <path d="M0,4.80393988 L0,2.9655274 L14.2914456,2.9655274 L14.2914456,4.80393988 L12.8032098,7.10194496 C12.1028629,8.7871564 11.7016225,10.1440799 11.5994887,11.1727154 C11.5046504,12.1794581 11.6213749,13.1716161 11.9496622,14.1491893 C12.2706546,15.1267555 13.0366587,16.2283392 14.2476746,17.4539405 L11.6213753,17.4539405 L10.2206815,15.9438265 C8.82728386,14.4264044 7.28433299,13.3175195 5.59182883,12.6171719 L5.59182883,10.7349947 C7.83147886,11.6614985 9.33065836,12.6098848 10.0893673,13.5801533 C9.76837491,11.7271526 9.84132767,10.0565329 10.3082256,8.56829427 C10.7678273,7.07276498 11.3514494,5.81798018 12.0590918,4.80393988 L2.42932657,4.80393988 C3.33394106,6.11708464 3.91756313,7.4630617 4.18019279,8.84187105 C4.45011796,10.2133828 4.51212779,11.4718164 4.36622227,12.6171719 C4.22761227,13.7552367 3.85555331,14.8239952 3.25004537,15.8234473 C2.65183295,16.8083111 1.5684845,17.3518089 0,17.4539405 L0,15.6374209 C0.831661385,15.673909 1.47364553,15.2799635 1.92595242,14.4555843 C2.37826002,13.6312192 2.60441382,12.6682447 2.60441382,11.566661 C2.60441382,10.4723678 2.44391761,9.35618883 2.12292519,8.21812396 C1.80922829,7.09465434 1.10158656,5.95659298 0,4.80393988 L0,4.80393988 Z M16.5894581,4.80393988 L16.5894581,2.9655274 L18.0120374,2.95460198 C18.0412209,1.9843334 18.4388135,1.21468289 19.2048152,0.645650461 C19.9562286,0.0766180284 20.8426047,-0.102117685 21.8639433,0.109443321 C22.8779864,0.328301949 23.4834943,0.693067495 23.6804671,1.20373996 C23.8701443,1.71440542 23.9467445,2.25060906 23.9102676,2.81235088 C23.8810841,3.36678806 23.5746827,3.82638768 22.9910635,4.19114972 C22.3928504,4.55591877 21.3240922,4.77113209 19.7847891,4.83678968 L19.7847891,17.4758544 L18.077695,17.4540036 L18.077695,4.79305647 L16.5894581,4.80393988 Z M19.8285612,2.94364504 C20.4194788,2.97284954 20.9556814,2.91083726 21.437169,2.7576082 C21.9113624,2.61170479 22.0937445,2.4074379 21.9843152,2.14480755 C21.8748859,1.88947482 21.5247128,1.81652311 20.9337959,1.92595242 C20.3428783,2.04267235 19.9744667,2.38190323 19.8285612,2.94364504 L19.8285612,2.94364504 Z M25.7158502,2.9655274 L25.7158502,4.80393988 L26.3943106,4.80393988 L26.3943106,17.4539405 L40.3136972,17.4539405 L40.3136972,4.80393988 L41.0359297,4.80393988 L41.0359297,2.9655274 L25.7158502,2.9655274 Z M28.5172358,13.1643254 L28.5172358,4.80393988 L30.5635611,4.80393988 L30.5635611,11.2602554 L28.5172358,13.1643254 Z M28.5172358,15.714025 L30.5635611,13.9193877 L30.5635611,15.6811962 L28.5172358,15.714025 Z M36.4508491,6.65328828 L36.4508491,4.80393988 L38.4971734,4.80393988 L36.4508491,6.65328828 Z M36.4508491,8.94035743 L38.4971734,7.14572019 L38.4971734,15.7249609 L36.4508491,15.6811541 L36.4508491,8.94035743 Z M32.5114001,9.83768131 L32.5114001,4.80393988 L34.5577244,4.80393988 L34.5577244,8.08680879 L32.5114001,9.83768131 Z M32.7302584,12.1575793 L34.7765827,10.209734 L34.7765827,15.6811962 L32.7302584,15.6811962 L32.7302584,12.1575793 Z M43.4652541,4.80393988 L43.4652541,2.9655274 L44.8878335,2.95460198 C44.9170169,1.9843334 45.3146095,1.21468289 46.0806112,0.645650461 C46.8320247,0.0766180284 47.7184007,-0.102117685 48.7397394,0.109443321 C49.7537825,0.328301949 50.3592904,0.693067495 50.5562632,1.20373996 C50.7459404,1.71440542 50.8225406,2.25060906 50.7860637,2.81235088 C50.7568802,3.36678806 50.4504788,3.82638768 49.8668595,4.19114972 C49.2686464,4.55591877 48.1998883,4.77113209 46.6605852,4.83678968 L46.6605852,17.4758544 L44.9534911,17.4540036 L44.9534911,4.79305647 L43.4652541,4.80393988 Z M46.7043573,2.94364504 C47.2952749,2.97284954 47.8314775,2.91083726 48.312965,2.7576082 C48.7871585,2.61170479 48.9695406,2.4074379 48.8601113,2.14480755 C48.7506819,1.88947482 48.4005088,1.81652311 47.8095919,1.92595242 C47.2186743,2.04267235 46.8502628,2.38190323 46.7043573,2.94364504 L46.7043573,2.94364504 Z M68.2400147,2.9655274 L68.2400147,4.80393988 C67.4521251,5.83256842 66.828379,7.48494756 66.3687766,9.76107729 C65.9967176,12.0444976 65.9602414,13.5765045 66.259348,14.357098 C66.551159,15.1231032 66.9414561,14.7401006 67.4302392,13.2080902 L68.0539852,15.6155386 C67.3463435,17.1913137 66.6131685,17.7092768 65.8544602,17.1694278 C65.0957513,16.6368765 64.5887294,15.2981936 64.3333945,13.153379 C64.0780604,11.0085715 64.6872161,8.23636802 66.1608616,4.83676867 L63.3813616,4.83676867 L63.3813616,17.4539405 L61.4663514,17.4539405 L61.4663514,4.88053339 L60.3064024,4.80395038 L60.536204,2.9655274 L68.2400147,2.9655274 Z M52.9199353,2.9655274 L52.9199353,4.80393988 C53.707825,5.83986604 54.3388665,7.12018552 54.81306,8.64489829 C55.2799572,10.1841993 55.5389395,11.537474 55.5900067,12.7047223 C55.6483667,13.9011472 55.5061086,14.6853894 55.1632324,15.0574491 C54.8130593,15.444097 54.4446481,14.9078933 54.0579988,13.4488382 L52.9418208,15.3638442 C53.5473287,16.9323286 54.2549708,17.5961987 55.064747,17.3554542 C55.8818174,17.1293049 56.4763824,16.4800267 56.8484421,15.4076194 C57.2132055,14.3206239 57.3262822,13.1752649 57.1876722,11.9715424 C57.0490615,10.7532317 56.8265555,9.55315809 56.5201541,8.3713215 C56.2210476,7.18219429 55.7979217,6.01130414 55.2507765,4.85865103 L58.3257346,4.85865103 L58.3257346,17.4539405 L60.2954591,17.4539405 L60.3064056,4.80393988 L60.5362071,2.9655274 L52.9199353,2.9655274 Z M70.6365136,10.6255619 C70.6000394,8.81633288 71.4608819,7.75122322 73.2190408,7.4302329 C74.0725881,7.26974125 74.8604781,7.45941989 75.5827108,7.99926884 C76.2976474,8.53911778 76.684297,9.31971122 76.7426598,10.3410492 C76.8010198,11.3623871 76.5019132,12.1794581 75.8453401,12.7922623 C75.1814701,13.4050664 74.4300567,13.6968768 73.5910998,13.6676933 C72.744848,13.6384888 72.0445018,13.3466785 71.4900611,12.7922623 C70.9356198,12.2378251 70.6511039,11.5155916 70.6365136,10.6255619 L70.6365136,10.6255619 Z M74.0725884,9.04979025 C73.3357653,8.8601081 72.7740291,9.06437499 72.3873798,9.66259091 C71.9934349,10.2607998 71.9715491,10.8444205 72.3217222,11.4134529 C72.6718953,11.989783 73.2482222,12.1721675 74.0507029,11.9606065 C74.8531829,11.7490385 75.2398326,11.2602519 75.2106519,10.4942467 C75.1741778,9.71365325 74.7948233,9.23216777 74.0725884,9.04979025 Z M79.1282111,6.12802757 L79.1500935,2.9655274 L93.9667988,2.9655274 L93.9667988,6.08425234 C92.6974209,6.71165174 91.9387122,7.99926884 91.6906729,9.94710362 C91.4353381,11.9095336 91.55571,13.346703 92.0517886,14.2586116 C92.5478679,15.1778178 93.1205474,15.6921356 93.7698271,15.8015649 L92.8725074,17.4539405 C91.7271491,17.059995 90.9100784,16.3158792 90.4212953,15.221593 C89.925216,14.1200023 89.6771763,12.9345204 89.6771763,11.6651474 C89.5823381,9.97263829 90.0309976,8.1962381 91.0231548,6.33594677 C90.3373989,6.67882295 89.553157,7.06911967 88.6704291,7.50683692 C87.7877005,7.94455418 86.8028381,8.42239435 85.7158418,8.94035743 C86.7225901,10.2024399 87.3353932,11.2602554 87.5542512,12.113804 C87.7731098,12.9673527 87.7877015,13.8136037 87.5980264,14.6525571 C87.4083491,15.4842199 86.9414516,16.1918616 86.1973336,16.7754823 C85.4459202,17.3518124 84.4610577,17.5487851 83.2427463,17.3664006 C82.0317305,17.1840161 81.1344115,16.6332242 80.5507894,15.714025 C79.9671674,14.8021163 79.8066715,13.7187661 80.0693018,12.4639743 C80.3319315,11.2164802 81.3277365,9.97263479 83.0567169,8.73243824 C81.6268431,7.16395374 80.3173412,6.29581685 79.1282111,6.12802757 L79.1282111,6.12802757 Z M80.9228484,4.80393988 C82.0827977,5.3729653 83.2573374,6.30675978 84.4464674,7.60532331 C85.745026,6.83931811 87.6928647,5.90552363 90.2899833,4.80393988 L80.9228484,4.80393988 Z M84.3151522,10.1659587 C83.3156995,10.9100781 82.6190007,11.6177198 82.2250558,12.2888839 C81.8384058,12.9527574 81.7800434,13.6239251 82.0499686,14.3023868 C82.3125989,14.9808486 82.8086779,15.3784394 83.5382055,15.4951593 C84.2677331,15.6191839 84.8550026,15.3966799 85.3000139,14.8276475 C85.7523215,14.2586151 85.9419988,13.5728592 85.8690457,12.7703799 C85.7960933,11.960603 85.2781288,11.0924626 84.3151522,10.1659587 Z M96.2101022,4.80393988 L96.2101022,2.9655274 L97.6326763,2.95460198 C97.6618808,1.9843334 98.0594751,1.21468289 98.8254593,0.645650461 C99.5768692,0.0766180284 100.463243,-0.102117685 101.484581,0.109443321 C102.498628,0.328301949 103.104138,0.693067495 103.301111,1.20373996 C103.490786,1.71440542 103.567387,2.25060906 103.530913,2.81235088 C103.501708,3.36678806 103.195306,3.82638768 102.611707,4.19114972 C102.013491,4.55591877 100.944732,4.77113209 99.4054311,4.83678968 L99.4054311,17.4758544 L97.6983338,17.4540036 L97.6983338,4.79305647 L96.2101022,4.80393988 Z M99.4491959,2.94364504 C100.040114,2.97284954 100.576318,2.91083726 101.057807,2.7576082 C101.531998,2.61170479 101.714379,2.4074379 101.60495,2.14480755 C101.495528,1.88947482 101.145357,1.81652311 100.554439,1.92595242 C99.9635206,2.04267235 99.5951063,2.38190323 99.4491959,2.94364504 L99.4491959,2.94364504 Z M115.502466,0 L117.504,2.965 L120,2.9655274 L120,4.80393988 L117.373696,4.82579072 C118.044861,5.38022791 118.467986,6.00032619 118.643073,6.68608555 C118.81816,7.37184492 118.891115,7.9919432 118.861939,8.54638039 C118.832734,9.10082458 118.635761,9.66985701 118.27102,10.2534777 C117.913549,10.8298007 117.187667,11.2565751 116.093373,11.5338007 C116.217398,13.1533475 116.47638,14.3315318 116.870318,15.0683535 C117.264264,15.8270681 117.898954,15.7687081 118.774388,14.8932736 L119.343424,13.7989769 L119.868685,15.7249294 C119.547688,16.5420039 119.058904,17.0636158 118.402336,17.2897651 C117.74576,17.5086237 117.103775,17.4685008 116.476383,17.1693963 C115.848984,16.8702919 115.382083,16.2939653 115.075681,15.4404167 C114.769279,14.5795774 114.513946,13.4050384 114.309683,11.9167998 L114.353489,9.77199221 C115.819835,10.1002731 116.724446,9.58960068 117.067322,8.23997481 C117.184049,6.63501621 116.250255,5.52613483 114.265939,4.91333067 C112.318104,4.62152384 110.815277,4.76743075 109.757458,5.35105143 C108.706937,5.92737448 108.07225,6.64595914 107.853399,7.50680541 C107.627242,8.36035406 107.816918,9.06799579 108.422424,9.6297306 C109.02064,10.198763 109.888777,10.2024048 111.026835,9.64065602 L113.040338,9.68446276 L109.232198,17.45393 L107.306245,17.45393 L109.232198,13.4050524 L110.107639,11.6979656 C108.772601,11.902229 107.780443,11.6651298 107.131165,10.9866681 C106.489178,10.315504 106.124412,9.60786224 106.036869,8.86374291 C105.949325,8.1269212 106.044163,7.38645067 106.321381,6.64233134 C106.598607,5.89821901 107.105631,5.28906366 107.842452,4.8148653 L105.752324,4.80393988 L105.752324,2.9655274 L115.341,2.965 L113.423305,0 L115.502466,0 Z" id="wikipedia-wordmark-mni" fill="#000000" fill-rule="nonzero"></path>
    </g>
</svg>

<svg xmlns="http://www.w3.org/2000/svg" width="120" height="18"><path fill="#000" fill-rule="nonzero" d="M0 4.804V2.966h14.291v1.838l-1.488 2.298c-.7 1.685-1.101 3.042-1.204 4.07a7.147 7.147 0 0 0 .35 2.977c.322.978 1.088 2.08 2.299 3.305H11.62l-1.4-1.51c-1.394-1.518-2.937-2.626-4.63-3.327v-1.882c2.24.926 3.74 1.875 4.498 2.845-.32-1.853-.248-3.523.22-5.012.459-1.495 1.042-2.75 1.75-3.764H2.43c.905 1.313 1.489 2.66 1.751 4.038.27 1.371.332 2.63.186 3.775a7.988 7.988 0 0 1-1.116 3.206c-.598.985-1.682 1.529-3.25 1.63v-1.816c.832.037 1.474-.357 1.926-1.181.452-.825.678-1.788.678-2.89a12.3 12.3 0 0 0-.481-3.348C1.809 7.095 1.102 5.957 0 4.804Zm16.59 0V2.966l1.422-.011c.03-.97.427-1.74 1.193-2.31.751-.568 1.638-.747 2.659-.536 1.014.22 1.62.584 1.816 1.095.19.51.267 1.047.23 1.608-.029.555-.335 1.014-.919 1.38-.598.364-1.667.58-3.206.645v12.639l-1.707-.022V4.794l-1.489.01Zm3.239-1.86a4.54 4.54 0 0 0 1.608-.186c.474-.146.657-.35.547-.613-.11-.256-.46-.328-1.05-.219-.591.117-.96.456-1.105 1.018Zm5.887.022v1.838h.678v12.65h13.92V4.804h.722V2.966h-15.32Zm2.801 10.198v-8.36h2.047v6.456l-2.047 1.904Zm0 2.55 2.047-1.795v1.762l-2.047.033Zm7.934-9.06v-1.85h2.046l-2.046 1.85Zm0 2.286 2.046-1.794v8.579l-2.046-.044v-6.74Zm-3.94.898V4.804h2.047v3.283l-2.047 1.75Zm.22 2.32 2.046-1.948v5.471H32.73v-3.523Zm10.734-7.354V2.966l1.423-.011c.029-.97.427-1.74 1.193-2.31.751-.568 1.637-.747 2.659-.536 1.014.22 1.62.584 1.816 1.095.19.51.267 1.047.23 1.608-.03.555-.336 1.014-.92 1.38-.597.364-1.666.58-3.205.645v12.639l-1.708-.022V4.794l-1.488.01Zm3.24-1.86a4.54 4.54 0 0 0 1.608-.186c.474-.146.657-.35.547-.613-.11-.256-.46-.328-1.05-.219-.591.117-.96.456-1.106 1.018Zm21.535.022v1.838c-.788 1.029-1.412 2.68-1.871 4.957-.372 2.283-.409 3.816-.11 4.596.292.766.682.383 1.171-1.149l.624 2.408c-.708 1.575-1.44 2.093-2.2 1.553-.758-.532-1.265-1.87-1.52-4.016-.256-2.144.353-4.917 1.827-8.316h-2.78v12.617h-1.915V4.88l-1.16-.077.23-1.838h7.704Zm-15.32 0v1.838c.788 1.036 1.419 2.316 1.893 3.84.467 1.54.726 2.893.777 4.06.058 1.197-.084 1.981-.427 2.353-.35.387-.718-.15-1.105-1.608l-1.116 1.915c.605 1.568 1.313 2.232 2.123 1.991.817-.226 1.411-.875 1.783-1.947.365-1.087.478-2.233.34-3.436a26.071 26.071 0 0 0-.668-3.6c-.299-1.19-.722-2.36-1.27-3.513h3.076v12.595h1.97l.01-12.65.23-1.838H52.92Zm17.717 7.66c-.037-1.81.824-2.875 2.582-3.196.854-.16 1.641.03 2.364.57.715.54 1.101 1.32 1.16 2.341.058 1.021-.241 1.838-.898 2.451-.664.613-1.415.905-2.254.876-.846-.03-1.546-.321-2.1-.876-.555-.554-.84-1.276-.854-2.166Zm3.436-1.576c-.737-.19-1.299.014-1.686.613-.394.598-.415 1.181-.065 1.75.35.577.926.76 1.729.548.802-.212 1.189-.7 1.16-1.467-.037-.78-.416-1.262-1.138-1.444Zm5.055-2.922.022-3.162h14.817v3.118c-1.27.628-2.028 1.915-2.276 3.863-.256 1.963-.135 3.4.36 4.312.497.919 1.07 1.433 1.719 1.543l-.897 1.652c-1.146-.394-1.963-1.138-2.452-2.232a8.56 8.56 0 0 1-.744-3.557c-.095-1.692.354-3.469 1.346-5.33-.686.344-1.47.734-2.353 1.172-.882.438-1.867.915-2.954 1.433 1.007 1.262 1.62 2.32 1.838 3.174.22.853.234 1.7.044 2.539-.19.831-.657 1.539-1.4 2.122-.752.577-1.737.774-2.955.591-1.211-.182-2.109-.733-2.692-1.652-.584-.912-.744-1.995-.482-3.25.263-1.248 1.259-2.491 2.988-3.732-1.43-1.568-2.74-2.436-3.929-2.604Zm1.795-1.324c1.16.569 2.334 1.503 3.523 2.801 1.299-.766 3.247-1.7 5.844-2.801h-9.367Zm3.392 5.362c-1 .744-1.696 1.452-2.09 2.123-.387.664-.445 1.335-.175 2.013.263.679.759 1.076 1.488 1.193.73.124 1.317-.098 1.762-.667.452-.57.642-1.255.569-2.058-.073-.81-.59-1.678-1.554-2.604ZM96.21 4.804V2.966l1.423-.011c.029-.97.426-1.74 1.192-2.31.752-.568 1.638-.747 2.66-.536 1.014.22 1.62.584 1.816 1.095.19.51.266 1.047.23 1.608-.03.555-.336 1.014-.92 1.38-.598.364-1.666.58-3.206.645v12.639l-1.707-.022V4.794l-1.488.01Zm3.24-1.86a4.54 4.54 0 0 0 1.608-.186c.474-.146.656-.35.547-.613-.11-.256-.46-.328-1.05-.219-.591.117-.96.456-1.106 1.018ZM115.501 0l2.002 2.965H120v1.839l-2.626.022c.67.554 1.094 1.174 1.27 1.86.174.686.247 1.306.218 1.86-.03.555-.226 1.124-.591 1.707-.357.577-1.083 1.004-2.178 1.28.124 1.62.383 2.799.777 3.535.394.76 1.029.7 1.904-.175l.57-1.094.525 1.926c-.321.817-.81 1.339-1.467 1.565a2.49 2.49 0 0 1-1.926-.12c-.627-.3-1.094-.876-1.4-1.73-.307-.86-.562-2.035-.766-3.523l.043-2.145c1.467.328 2.371-.182 2.714-1.532.117-1.605-.817-2.714-2.801-3.327-1.948-.291-3.45-.146-4.509.438-1.05.576-1.685 1.295-1.904 2.156-.226.853-.036 1.561.57 2.123.598.569 1.466.572 2.604.01l2.013.044-3.808 7.77h-1.926l1.926-4.049.876-1.707c-1.335.204-2.328-.033-2.977-.711-.642-.671-1.007-1.38-1.094-2.123a4.699 4.699 0 0 1 .284-2.222c.278-.744.785-1.353 1.521-1.827l-2.09-.011V2.966l9.589-.001L113.423 0h2.08Z"/></svg>
